X: 4
T: Turopoljski Drmes
O: Croatia
Z: John Chambers <jc@trillian.mit.edu>
M: 2/4
L: 1/8
K: D
|: "D"[d2A2] [f2d2] | [a2f2] [f2d2] \
| [af][af] [af][fd] | "A7"[g2e2] [e2c2] \
| [e2c2] [f2d2] | [g2e2] [e2c2] \
| [af][af] [af][ge] | "D"[f2d2] [d2A2] :|
|: "G"[b3g3] [af] | [ge][af] [b2g2] \
| "D"[a3f3] [ge] | [fd][ge] [a2f2] \
| "A7"[g3e3] [fd] | [e2c2] [af][ge] \
|1 "D"[f2d2] [g2e2] | [a2f2] [f2d2] \
:|2 "D"[f2d2] "A7"[e2c2] | "D"[d2A2] z2 :|
%%sep 0 1 8cm
